svg/300/outlined/phonelink_erase-fill.svg

<svg xmlns="http://www.w3.org/2000/svg" width="48" height="48" viewBox="0 -960 960 960"><path d="m564.384-338.924-31.615-31.999 109.692-109.692-109.692-110.077 31.615-31.999 110.077 110.076 109.692-110.076 31.999 31.999L706.46-480.615l109.692 109.692-31.999 31.999-109.692-110.077-110.077 110.077ZM237.694-60.002q-23.75 0-40.721-16.97-16.972-16.972-16.972-40.722v-724.612q0-23.75 16.972-40.721 16.971-16.972 40.721-16.972h404.612q23.75 0 40.721 16.972 16.972 16.971 16.972 40.721v135.999h-45.384v-60.231h-429.23v573.076h429.23v-60.231h45.384v135.816q0 24.03-16.972 40.953-16.971 16.923-40.721 16.923H237.694Z"/></svg>

<svg xmlns="http://www.w3.org/2000/svg" width="48" height="48" viewBox="0 -960 960 960"><path d="m564.38-338.92-31.61-32 109.69-109.7-109.69-110.07 31.61-32 110.08 110.08 109.69-110.08 32 32-109.69 110.07 109.69 109.7-32 32L674.46-449 564.38-338.92ZM237.69-60q-23.75 0-40.72-16.97T180-117.69v-724.62q0-23.75 16.97-40.72T237.69-900h404.62q23.75 0 40.72 16.97T700-842.31v136h-45.39v-60.23H225.39v573.08h429.22v-60.23H700v135.81q0 24.03-16.97 40.96Q666.06-60 642.31-60H237.69Z"/></svg>
